src/base/static/base/assets/include/rs-plugin/demos/assets/svg/action/ic_settings_bluetooth_24px.svg

<svg height="24" viewBox="0 0 24 24" width="24" xmlns="http://www.w3.org/2000/svg"><path d="m11 24h2v-2h-2zm-4 0h2v-2h-2zm8 0h2v-2h-2zm2.71-18.29-5.71-5.71h-1v7.59l-4.59-4.59-1.41 1.41 5.59 5.59-5.59 5.59 1.41 1.41 4.59-4.59v7.59h1l5.71-5.71-4.3-4.29zm-4.71-1.88 1.88 1.88-1.88 1.88zm1.88 10.46-1.88 1.88v-3.76z"/></svg>

<svg xmlns="http://www.w3.org/2000/svg" width="24" height="24" viewBox="0 0 24 24"><path d="M11 24h2v-2h-2v2zm-4 0h2v-2H7v2zm8 0h2v-2h-2v2zm2.71-18.29L12 0h-1v7.59L6.41 3 5 4.41 10.59 10 5 15.59 6.41 17 11 12.41V20h1l5.71-5.71-4.3-4.29 4.3-4.29zM13 3.83l1.88 1.88L13 7.59V3.83zm1.88 10.46L13 16.17v-3.76l1.88 1.88z"/></svg>
